app/assets/img/ic-hamburger-menu.svg

<svg fill="none" height="24" viewBox="0 0 24 24" width="24" xmlns="http://www.w3.org/2000/svg"><path clip-rule="evenodd" d="m1.44 7.38671v-2.34667h21.12v2.34667zm0 5.86669h21.12v-2.3467h-21.12zm0 5.8667h21.12v-2.3467h-21.12z" fill="#276ce5" fill-rule="evenodd"/></svg>

<svg width="24" height="24" viewBox="0 0 24 24" fill="none" xmlns="http://www.w3.org/2000/svg">
<path fill-rule="evenodd" clip-rule="evenodd" d="M1.44 7.38671V5.04004H22.56V7.38671H1.44ZM1.44 13.2534H22.56V10.9067H1.44V13.2534ZM1.44 19.1201H22.56V16.7734H1.44V19.1201Z" fill="#276CE5"/>
</svg>
